X:512
T:Maids of Islay, The
R:Slow Strathspey
B:The Athole Collection
M:C
L:1/8
Q:1/4=140
K:A
c|AA e>c e>f e>c|AA e>c f>e c2|AA e>c e>f e>c|f>g a>f e<c B2:|
a>b a>f e>f e>c|a>b a>f ef ~c2|a>b a>f e>f e>c|f>g a>f e>c B>e|
a>b a>f e>f e>c|a>b a>f ef ~c2|a>b f>a e>f c>e|f>g a>f ec ~B2||

